X:247
T:Devils Dream,(with 3 parts). JC.252
R:Reel
S:John Clare,Poet,Helpstone (1793-1864)
O:England
A:Northamptonshire
Z:vmp.P. Headford
M:C|
L:1/8
Q:2/4=90
K:A
eaga eaga|\
eaga fedc|dfBf dfBf|dfBf fedc|!
eaga eaga|eaga fedc|fdcB .e(cB)A|E2G2A4:||:!
ceAe ceAe|ceAe (fe).d.c|dfBf dfBf|dfBf agfe|!
ceAe ceAe|ceAe (fe).d.c|fdcB edcA|E2B,2″ crot”A,4||!
(ae)ce (ae)ce|(ae)ce a2ga|(bg)eg (bg)eg|(bg)eg b2ag|!
(ae)ce (ae)ce|(ae)ce a2gb|(ag)fe dcBA|E2G2A4|]

